X:286
T:B286-  Lilliburlero
S:(1st/2)
Q:1/4=120
L:1/4
M:6/4
K:G
G3/2 A/GB2B|A3/2 B/Ac3|(Bd)Gc2B|AGFG3:|\
g2fg2d|=f2fe2d|efga2d|edcB3|\
(ed)cBcd|(ed)c(Bc)d|(ed)Bc2B|(AG)FG3|]

